X:2000
T: Grips (Lemluath) (Dro)
O:Kevin Fraser
Z:Kevin Fraser
B: Logan's Complete Tutor
B: http://svenax.net/site/canntaireachd/6/
Q:1/4=120
K:HP
M:4/4
L:1/4
R:March
M:4/4
[| A {GdG}A A{GdG}c | c{GdG}A c{GdG}c | A{GdG}B|]
w: - - - dro         |                 | en tro
W: Note the distinct movements in the grip: 1 - Close to Low G, 2 - D gracenote on Low G 3 - move to next melody note.
W;
W: The College of Piping Tutor calls the Grip on C a throw on C.
W:
T:Grip (Lemluath) Scale              
[| A {G}{d}{G} A | A/2 {Gd}G/2 A |A {G}{dG} A |A {GdG} A |]
w: as gracenotes | as half doubling | as movements | as rudiment ||
w:
W: Unlike doublings, the beat is after the grip on the melody note.
W:
W: 
T: Grips on the notes of the scale to the same note
|: {g}A{GdG}A {g}B{GdG}B |{g}c{GdG}c {g}d{GBG}d | {g}e{GdG}e {g}f{GdG}f |{a}g{GdG}g a{GdG}a :| 
w: hin dren     hio dro    | ho dro      ha dra    |  che dre     he drhe  |  hi drhi   I drI/darI  :|
W:
T: Grips from A to the other notes of the scale (Nethor Lorn)
|: {g}A{GdG}A {g}A{GdG}B |{g}A{GdG}c {g}A{GdG}d | {g}A{GdG}e {g}A{GdG}f |{g}A{GdG}g A{GdG}a :| 
w: hin bain     hin tro    |  hin dro      hin deda |   hin bare    hin barhe | hin barhi  hin barI/darI :|
W:
